X:165
T:Da yw Swllt - A shilling is good (Variations)
M:6/8
L:1/8
Q:120
C:Trad. arr. J.T.
R:Processional
N:Variations by J.T
K:G
E2 G B3 | AGA B3 | G2 G GFE | F3- F3 | E2 E EBA | G2
G ABA | G2 G FEF | E3- E3 :||: E2 G BAG | AGA GFE | B2
B BAG | F3 D3 | E2 E EBA | GFG A3 | B2 B AGF |1 E3- E
3 :||2 E3 G2 F ||: EFG EFG | AGF E2 E | G2 G GAB | A3
F3 | GFG EBA | GFE F2 D | E2 E FEF |1 E3 G2 F :||2 E3
G2 A ||: BGE BGE | AFD E3 | G2 G GFE | DEF FGA | B2 B
BEF | G2 G ABA | G2 G FED | E3 G2 A :||: BAG EFG | FED
E3 | E2 E EFG | AGF FGA | B2 B BEF | GFE D3 | E2 E DE
F |1 E3 G2 A :||2 E3- E3 ||: E2 G B3 | AGA B3
| G2 G GFE | D3- D3 | E2 E EBA | G2 G ABA |
G2 G FED | E3- E3 :||
